webroot/css/img/new-desgin/ant-design_linkedin-outlined.svg

<svg width="32" height="32" viewBox="0 0 32 32" fill="none" xmlns="http://www.w3.org/2000/svg">
<g id="ant-design:linkedin-outlined">
<path id="Vector" d="M25.2318 5H6.76825C5.792 5 5 5.792 5 6.76825V25.2318C5 26.208 5.792 27 6.76825 27H25.2318C26.208 27 27 26.208 27 25.2318V6.76825C27 5.792 26.208 5 25.2318 5ZM25.2318 25.24C12.9173 25.2372 6.76 25.2345 6.76 25.2318C6.76275 12.9173 6.7655 6.76 6.76825 6.76C19.0827 6.76275 25.24 6.7655 25.24 6.76825C25.2372 19.0827 25.2345 25.24 25.2318 25.24ZM8.2615 13.2472H11.5257V23.7467H8.2615V13.2472ZM9.895 11.8118C10.9373 11.8118 11.787 10.9647 11.787 9.91975C11.787 9.67129 11.7381 9.42526 11.643 9.19571C11.5479 8.96616 11.4085 8.75759 11.2328 8.5819C11.0572 8.40622 10.8486 8.26685 10.619 8.17177C10.3895 8.07669 10.1435 8.02775 9.895 8.02775C9.64654 8.02775 9.40051 8.07669 9.17096 8.17177C8.94142 8.26685 8.73284 8.40622 8.55715 8.5819C8.38147 8.75759 8.2421 8.96616 8.14702 9.19571C8.05194 9.42526 8.003 9.67129 8.003 9.91975C8.00025 10.9647 8.84725 11.8118 9.895 11.8118ZM16.8333 18.552C16.8333 17.1825 17.0945 15.857 18.7913 15.857C20.4633 15.857 20.488 17.4218 20.488 18.64V23.7467H23.7495V17.9882C23.7495 15.1612 23.139 12.986 19.8363 12.986C18.2495 12.986 17.1853 13.8577 16.748 14.6827H16.704V13.2472H13.5718V23.7467H16.8333V18.552Z" fill="white"/>
</g>
</svg>

<svg width="32" height="32" fill="none" xmlns="http://www.w3.org/2000/svg"><path d="M25.232 5H6.768C5.792 5 5 5.792 5 6.768v18.464C5 26.208 5.792 27 6.768 27h18.464c.976 0 1.768-.792 1.768-1.768V6.768C27 5.792 26.208 5 25.232 5Zm0 20.24c-12.315-.003-18.472-.005-18.472-.008.003-12.315.006-18.472.008-18.472 12.315.003 18.472.006 18.472.008-.003 12.315-.005 18.472-.008 18.472ZM8.262 13.247h3.264v10.5H8.262v-10.5Zm1.633-1.435a1.894 1.894 0 0 0 1.338-3.23 1.89 1.89 0 0 0-3.23 1.338 1.888 1.888 0 0 0 1.892 1.892Zm6.938 6.74c0-1.37.262-2.695 1.958-2.695 1.672 0 1.697 1.565 1.697 2.783v5.107h3.262v-5.759c0-2.827-.611-5.002-3.914-5.002-1.586 0-2.65.872-3.088 1.697h-.044v-1.436h-3.132v10.5h3.261v-5.195Z" fill="#fff"/></svg>
